X: 20832
T: NOS GALEN
O: Welch Air
N: "Deck the Halls" is the usual English title.
%R: _
B: "Edinburgh Repository of Music" v.2 p.83 #2
F: http://digital.nls.uk/special-collections-of-printed-music/pageturner.cfm?id=87776133
Z: 2015 John Chambers <jc:trillian.mit.edu>
M: C
L: 1/16
K: C
[|\
"_P."g6f2 e4d4 | c4c2>d2 e4c4 | (d2e2)f2e2 e6d2 | c4B4 (cBcd) (edef) |\
g2>"_F."f2 e4d4 | c4c2>d2 (egdg) c4 | (d2e2) (gfed) e6d2 | c4TB4 {AB}c8 |]
[|\
"_P."d6e2 {efg}f4d4 | e6f2 {^fga}g4d4 | e2^f2g4 f2g2a4 | b6a2 {^fga}Hg4z4 |\
(g2^g2a2f2) e4c4 | (dG^FG ABcd) e4c4 | d2e2 gfed g6f2 | e4Td4 {cd}"_D.C."c8 |]
